X:1
T:6 Songs, Op.7
T:Heimkehr
T:6. Heimkehr
T:Johannes Brahms
T:Ludwig Uhland
T:6 Songs, Op.7
T:OpenScore (CC0)
T:OpenScore (CC0)
C:Johannes Brahms
Z:Johann Ludwig Uhland
Z:OpenScore (CC0)
%%score 1 { 2 | ( 3 4 ) }
L:1/8
Q:1/4=120
M:4/4
K:D
V:1 treble nm="Singstimme\nVoice"
V:2 treble nm="Pianoforte"
V:3 bass 
V:4 bass 
V:1
"^Allegro agitato" z | z8 | z8 | z8 |[Q:1/4=90] z8 | !fermata!z4 !fermata!z2 z!p![Q:1/4=120] F | %6
w: |||||O|
!<(! F2 B2!<)! d2 z!p! F | (.A2 .G2 .F2) z F |!<(! F2 B2!<)! d2 z!p! B | (.A2 .^G2 .A2) z2 | %10
w: brich nicht, Steg, du|zit- terst sehr, o|stürz nicht, Fels, du|draü- est schwer;|
 =G2 F E A A z2 |"^cresc." A A G F B2 z2 | ^G!<(! G B d ^e3!<)! e | %13
w: Welt, geh nicht un- ter,|Him- mel, fall nicht ein,|Him- mel, fall nicht ein, bis|
!ff!"^poco rit."[Q:1/4=100] f3 d c2!p! B2 |[Q:1/4=120]"^a tempo" !>!e3 c ^A2 z F | %15
w: ich mag bei der|Lieb- sten sein, bis|
!<(!"^sempre cresc." f3 d c2!<)! B2 |!f! !>!e3 c ^A2 F2 |!<(! f6!<)! !>!g2 | %18
w: ich mag bei der|Lieb- sten sein, bis|ich, bis|
 !>!^g2 !>!g2 !>!f2"^poco rit."[Q:1/4=95] !>!^e2 | !>!f6 !>!c2 | !>!^d8- | !fermata!d8 |] %22
w: ich mag bei der|Lieb- sten|sein!|_|
V:2
 (F, | ^A,2 B,2 D>F (3.B) z (B, | C2 D2 ^G>B .[DGd]) z | %3
 !>![^D^GB^d]2 !>![EGBe]2 !>![^EGB^e]2 z .[=EGc=e] | !>![^E^Gc^e]2 !>![Gce^g]2 !>![cf^ac']4- | %5
 !fermata![cfac']4 !fermata!z2 z z | %6
!p!!<(! (6:4:6.[B,DF].[B,DF].[B,DF].[B,DF].[B,DF].[B,DF]!<)!!>(! (3.[B,DG].[B,DG].[B,DG] (3.[B,DG].[B,DG].[B,DF]!>)! | %7
 (3[A,B,F][A,B,F][A,B,F] (3[G,B,E][G,B,E][G,B,E] (6:4:6[F,^A,C][F,A,C][F,A,C][F,A,C][F,A,C][F,A,C] | %8
!<(! (3[B,D][B,D][B,D] (3[B,DF][B,DF][B,DF]!<)!!>(! (6:4:6[B,D^G][B,DG][B,DG][B,DG][B,DG][B,DG]!>)! | %9
!p! (3[A,^DF][A,DF][A,DF] (3[^G,C^E][G,CE][G,CE] (6:4:6[A,CF][A,CF][A,CF][A,CF][A,CF][A,CF] | %10
 (6:4:6[A,C=E][A,CE][A,CE][A,CE][A,CE][A,CE] (6:4:6[A,CE][A,CE][A,CE][A,CE][A,CE][A,CE] | %11
"_cresc." (6:4:6[A,B,^D][A,B,D][A,B,D][A,B,D][A,B,D][A,B,D] (6:4:6[A,B,D][A,B,D][A,B,D][A,B,D][A,B,D][A,B,D] | %12
 (6:4:6[^G,B,=D][G,B,D][G,B,D][G,B,D][G,B,D][G,B,D] (6:4:6[G,B,D][G,B,D][G,B,D][G,B,D][G,B,D][G,B,D] | %13
!f! (6:4:6[B,DF][df][df][df][df][df] (6:4:6[df][df][df][df][df][df] | %14
 (6:4:6[ef][ef][ef][ef][ef][ef] (6:4:6[ef][ef][ef][ef][ef][ef] | %15
!<(!"_sempre cresc." (6:4:6[df][df][df][df][df][df] (6:4:6[df][df][df][df][df]!<)![df] | %16
!f! (6:4:6[ef][ef][ef][ef][ef][ef] (6:4:6[ef][ef][ef][ef][ef][ef] | %17
!<(! (6:4:6[Bdf][Bdf][Bdf][Bdf][Bdf][Bdf] (3[Bdf][Bdf][Bdf] (3[Bdg][Bdg][Bdg]!<)! | %18
!ff! (6:4:6[Bd^g][Bdg][Bdg][Bdg][Bdg][Bdg] (3[Bdf][Bdf][Bdf] (3[Bc^e][Bce][Bce] | %19
 (6:4:6[B^df][Bdf][Bdf][Bdf][Bdf][Bdf] (3[Bcf][Bcf][Bcf] (3[^Acf][Acf][Acf] | %20
 !>![^DFB^d]3 !>![FBdf] !>![Bdfb]2 !>![dfb^d']2 | !>!!fermata![^dfb^d']8 |] %22
V:3
!p! z | %1
"^cresc." (6:4:6.[B,,D,].[B,,D,].[B,,D,].[B,,D,].[B,,D,].[B,,D,] (6:4:6.[A,,D,F,].[A,,D,F,].[A,,D,F,].[A,,D,F,].[A,,D,F,].[A,,D,F,] | %2
 (3[G,,D,F,][G,,D,F,][G,,D,F,] (3[F,,D,F,][F,,D,F,][F,,D,F,] (3[^E,,B,,^E,][E,,B,,E,][E,,B,,E,] [E,,B,,E,]!f! [=E,,=E,] | %3
 !>![^D,,^D,]2 !>![=D,,=D,]2 (!>![C,,C,]>[^G,,,^G,,] [C,,,C,,])!ff! .[C,C] | %4
"^rit." !>![^B,,^B,]2 !>![=B,,=B,]2 !>![^A,,^A,]>[^G,,^G,] [F,,A,,F,]2- | %5
!>(! !fermata![F,,A,,F,]4!>)! !fermata!z2 z z | z4"^sostenuto" z2 z!p! (B,,, | %7
 ^D,,2 E,,2 F,,>^A,, C,2) | z4 z2 z!p! (B,,, | ^B,,,2 C,,2 F,,>C,, F,,,2) | A,,4 (=G,,2 F,,E,,) | %11
 (F,,2 B,,) z!<(! .A,,.A,,.G,,!<)!.F,, | (^E,,2 !>!^E,2-)!<(! E,(.D,!<)!.B,,.^G,,) | %13
!>(!!ped! (6:4:6[F,,B,,D,F,]"^poco rit."[F,,B,,D,F,][F,,B,,D,F,][F,,B,,D,F,][F,,B,,D,F,][F,,B,,D,F,]!>)! [F,,B,,D,F,]!ped-up! z z2 | %14
!p! z2 z!<(! (F,!<)! C3 ^A, | F,2) z!<(! (F,!<)! D3 B, | F,2) z!<(! (F,!<)! C3 ^A, | %17
 F,2) z (F, D2 B,2 | ^E,2) [^E,,E,]2 [F,,F,]2"^poco rit." [^G,,^G,]2 | %19
 (6:4:6[F,,B,,^D,F,][F,,B,,D,F,][F,,B,,D,F,][F,,B,,D,F,][F,,B,,D,F,][F,,B,,D,F,] (3[F,,B,,C,F,][F,,B,,C,F,][F,,B,,C,F,] (3[F,,^A,,C,F,][F,,A,,C,F,][F,,A,,C,F,] | %20
!<(! (6:4:6[B,,^D,F,B,][B,,D,F,B,][B,,D,F,B,][B,,D,F,B,][B,,D,F,B,][B,,D,F,B,] (6:4:6[B,,D,F,B,][B,,D,F,B,][B,,D,F,B,][B,,D,F,B,][B,,D,F,B,]!<)!!fff![B,,D,F,B,] | %21
 !arpeggio!!fermata![B,,^D,F,B,]8 |] %22
V:4
 x | x8 | x8 | x8 | x4 ^A,,2- x2 | x8 | x8 | x8 | x8 | x8 | x8 | x8 | x8 | x8 | x8 | x8 | x8 | x8 | %18
 x8 | x8 | x8 | x8 |] %22

